X: 6962
T: Chez Seychelles
R: mazurka
M: 3/4
K: Fmajor
|:f/ f>e|d2 d>e f>e|d2 d>e f>g|a2 a>g f>e|d2 d>e f>e|
d2 d>e f>e|d2 d>c A>B|c>d c>B A<G|F2 F3/2:|
|:G/ A>B|c2 f>c a>f|g2 f2 f>c|d>f d>c B>A|G2 G>A c>d|e2 e>e g>e|
[1 (3fgf e2 e>d|c>d e>d c<B|A2 A:|2 f2 e2 d2|(3efe d>c B<c|F2 F3/2||

